; HEADER_BLOCK_START
; generated by OrcaSlicer 2.2.0 on 2025-02-19 at 12:21:32
; total layer number: 14
; filament_density: 1.24
; filament_diameter: 1.75
; max_z_height: 3.00
; HEADER_BLOCK_END

; THUMBNAIL_BLOCK_START

;
; THUMBNAIL_BLOCK_END

; THUMBNAIL_BLOCK_START

;
; THUMBNAIL_BLOCK_END

; external perimeters extrusion width = 0.40mm
; perimeters extrusion width = 0.44mm
; infill extrusion width = 0.44mm
; solid infill extrusion width = 0.48mm
; top infill extrusion width = 0.38mm
; first layer extrusion width = 0.48mm

; EXECUTABLE_BLOCK_START
EXCLUDE_OBJECT_DEFINE NAME=patch_bed_leveling.stl_id_0_copy_0 CENTER=110.983,115.429 POLYGON=[[15.2664,20.4291],[190.983,14.7126],[200.983,14.7126],[206.699,200.429],[206.699,210.429],[30.9829,216.146],[20.9829,216.146],[15.2664,30.4291],[15.2664,20.4291]]
M73 P0 R3
;TYPE:Custom
G28
M190 S63
M109 S215
PRINT_START EXTRUDER=215 BED=63
line_purge
G90
G21
M83 ; use relative distances for extrusion
; filament start gcode
M106 S0
;LAYER_CHANGE
;Z:0.2
;HEIGHT:0.2
;BEFORE_LAYER_CHANGE
;0.2
G92 E0

G1 E-.5 F1800
;AFTER_LAYER_CHANGE
;0.2
;_SET_FAN_SPEED_CHANGING_LAYER
SET_VELOCITY_LIMIT ACCEL=500 ACCEL_TO_DECEL=250
G1 X13.673 Y18.422 F21000
G1 Z.2
G1 E.5 F1800
;TYPE:Skirt
;WIDTH:0.48
G1 F3000
G1 X14.065 Y18.061 E.01899
G1 X15.18 Y17.775 E.04101
G1 X190.897 Y12.058 E6.26171
G1 X200.983 Y12.057 E.35924
M73 P1 R3
M73 P1 R3
G1 X202.372 Y12.449 E.05142
G1 X203.351 Y13.511 E.05142
G1 X203.637 Y14.631 E.04117
M73 P2 R3
M73 P2 R3
G1 X209.354 Y200.347 E6.6177
G1 X209.355 Y210.429 E.35907
M73 P3 R3
M73 P3 R3
G1 X208.963 Y211.819 E.05142
G1 X207.901 Y212.797 E.05142
G1 X206.786 Y213.083 E.04101
G1 X31.069 Y218.8 E6.26171
G1 X20.983 Y218.801 E.35924
M73 P5 R3
M73 P5 R3
G1 X19.594 Y218.409 E.05142
G1 X18.615 Y217.347 E.05142
G1 X18.329 Y216.227 E.04117
G1 X12.612 Y30.511 E6.6177
G1 X12.611 Y20.429 E.35907
M73 P7 R3
M73 P7 R3
G1 X13.003 Y19.04 E.05142
G1 X13.643 Y18.449 E.03101
G1 X13.916 Y18.796 F21000
G1 F3000
G1 X14.474 Y18.357 E.02529
G1 X15.194 Y18.212 E.02617
G1 X190.911 Y12.495 E6.26171
G1 X200.983 Y12.494 E.35873
M73 P9 R3
M73 P9 R3
G1 X202.241 Y12.885 E.04691
G1 X203.055 Y13.92 E.04691
G1 X203.2 Y14.644 E.02631
G1 X208.917 Y200.361 E6.6177
G1 X208.918 Y210.429 E.3586
M73 P10 R3
M73 P10 R3
G1 X208.527 Y211.687 E.04691
M73 P11 R3
M73 P11 R3
G1 X207.492 Y212.501 E.04691
G1 X206.772 Y212.646 E.02617
G1 X31.055 Y218.363 E6.26171
G1 X20.983 Y218.364 E.35873
M73 P12 R3
M73 P12 R3
G1 X19.725 Y217.973 E.04691
G1 X18.911 Y216.938 E.04691
G1 X18.765 Y216.214 E.02631
G1 X13.049 Y30.497 E6.6177
G1 X13.048 Y20.429 E.3586
M73 P14 R3
M73 P14 R3
G1 X13.439 Y19.171 E.04691
G1 X13.885 Y18.821 E.0202
; printing object patch_bed_leveling.stl id:0 copy 0
G1 E-.35 F1800
;WIPE_START
G1 F3000
G1 X14.474 Y18.357 E-.11251
G1 X14.719 Y18.308 E-.03749
;WIPE_END
EXCLUDE_OBJECT_START NAME=patch_bed_leveling.stl_id_0_copy_0
G1 X187.198 Y209.315 F21000
G1 E.5 F1800
M73 P15 R3
;TYPE:Inner wall
;WIDTH:0.479999
M73 P15 R3
G1 F3000
G1 X187.198 Y201.543 E.2768
G1 X205.585 Y201.543 E.6549
G1 X205.585 Y209.315 E.2768
G1 X187.238 Y209.315 E.65347
G1 X186.761 Y209.752 F21000
G1 F3000
M73 P16 R3
M73 P16 R3
G1 X186.761 Y201.106 E.30793
G1 X206.022 Y201.106 E.68603
G1 X206.022 Y209.752 E.30793
G1 X186.801 Y209.752 E.68461
G1 X186.324 Y210.189 F21000
;TYPE:Outer wall
G1 F3000
G1 X186.324 Y200.669 E.33907
G1 X206.459 Y200.669 E.71716
G1 X206.459 Y210.189 E.33907
G1 X186.364 Y210.189 E.71574
M73 P17 R3
M73 P17 R3
G1 E-.35 F1800
;WIPE_START
G1 F3000
G1 X186.359 Y209.189 E-.15
;WIPE_END
G1 X204.557 Y201.674 F21000
G1 E.5 F1800
;TYPE:Bottom surface
;WIDTH:0.486536
G1 F6300
G1 X205.454 Y202.572 E.04588
G1 X205.454 Y203.199 F21000
G1 F6300
G1 X203.929 Y201.674 E.07795
G1 X203.302 Y201.674 F21000
G1 F6300
G1 X205.454 Y203.827 E.11002
G1 X205.454 Y204.454 F21000
G1 F6300
G1 X202.675 Y201.674 E.1421
G1 X202.047 Y201.674 F21000
G1 F6300
G1 X205.454 Y205.081 E.17417
G1 X205.454 Y205.709 F21000
G1 F6300
G1 X201.42 Y201.674 E.20624
G1 X200.793 Y201.674 F21000
M73 P18 R3
M73 P18 R3
G1 F6300
G1 X205.454 Y206.336 E.23831
G1 X205.454 Y206.963 F21000
G1 F6300
G1 X200.165 Y201.674 E.27039
G1 X199.538 Y201.674 F21000
G1 F6300
G1 X205.454 Y207.591 E.30246
G1 X205.454 Y208.218 F21000
G1 F6300
G1 X198.91 Y201.674 E.33453
G1 X198.283 Y201.674 F21000
G1 F6300
G1 X205.454 Y208.845 E.3666
G1 X205.165 Y209.184 F21000
G1 F6300
G1 X197.656 Y201.674 E.3839
G1 X197.028 Y201.674 F21000
G1 F6300
G1 X204.538 Y209.184 E.3839
G1 X203.91 Y209.184 F21000
M73 P19 R2
M73 P19 R2
G1 F6300
G1 X196.401 Y201.674 E.3839
G1 X195.774 Y201.674 F21000
G1 F6300
G1 X203.283 Y209.184 E.3839
G1 X202.656 Y209.184 F21000
G1 F6300
G1 X195.146 Y201.674 E.3839
G1 X194.519 Y201.674 F21000
G1 F6300
G1 X202.028 Y209.184 E.3839
G1 X201.401 Y209.184 F21000
G1 F6300
G1 X193.892 Y201.674 E.3839
G1 X193.264 Y201.674 F21000
G1 F6300
G1 X200.774 Y209.184 E.3839
G1 X200.146 Y209.184 F21000
G1 F6300
G1 X192.637 Y201.674 E.3839
G1 X192.009 Y201.674 F21000
G1 F6300
M73 P20 R2
M73 P20 R2
G1 X199.519 Y209.184 E.3839
G1 X198.891 Y209.184 F21000
G1 F6300
G1 X191.382 Y201.674 E.3839
G1 X190.755 Y201.674 F21000
G1 F6300
G1 X198.264 Y209.184 E.3839
G1 X197.637 Y209.184 F21000
G1 F6300
G1 X190.127 Y201.674 E.3839
G1 X189.5 Y201.674 F21000
G1 F6300
G1 X197.009 Y209.184 E.3839
G1 X196.382 Y209.184 F21000
G1 F6300
G1 X188.873 Y201.674 E.3839
G1 X188.245 Y201.674 F21000
G1 F6300
G1 X195.755 Y209.184 E.3839
G1 X195.127 Y209.184 F21000
G1 F6300
G1 X187.618 Y201.674 E.3839
G1 X187.329 Y202.013 F21000
M73 P21 R2
M73 P21 R2
G1 F6300
G1 X194.5 Y209.184 E.3666
G1 X193.873 Y209.184 F21000
G1 F6300
G1 X187.329 Y202.64 E.33453
G1 X187.329 Y203.268 F21000
G1 F6300
G1 X193.245 Y209.184 E.30245
G1 X192.618 Y209.184 F21000
G1 F6300
G1 X187.329 Y203.895 E.27038
G1 X187.329 Y204.522 F21000
G1 F6300
G1 X191.99 Y209.184 E.23831
G1 X191.363 Y209.184 F21000
G1 F6300
G1 X187.329 Y205.15 E.20624
G1 X187.329 Y205.777 F21000
G1 F6300
G1 X190.736 Y209.184 E.17416
G1 X190.108 Y209.184 F21000
G1 F6300
G1 X187.329 Y206.404 E.14209
G1 X187.329 Y207.032 F21000
G1 F6300
G1 X189.481 Y209.184 E.11002
G1 X188.854 Y209.184 F21000
M73 P22 R2
M73 P22 R2
G1 F6300
G1 X187.329 Y207.659 E.07794
G1 X187.329 Y208.287 F21000
G1 F6300
G1 X188.226 Y209.184 E.04587
G1 E-.35 F1800
;WIPE_START
G1 F6300
G1 X187.519 Y208.477 E-.15
;WIPE_END
G1 X29.869 Y196.644 F21000
G1 E.5 F1800
;TYPE:Inner wall
;WIDTH:0.479999
G1 F3000
G1 X29.869 Y215.031 E.6549
G1 X22.097 Y215.031 E.2768
G1 X22.097 Y196.644 E.6549
M73 P23 R2
M73 P23 R2
G1 X29.829 Y196.644 E.27537
G1 X30.306 Y196.207 F21000
G1 F3000
G1 X30.306 Y215.469 E.68603
G1 X21.66 Y215.469 E.30793
G1 X21.66 Y196.207 E.68603
G1 X30.266 Y196.207 E.30651
G1 X30.743 Y195.77 F21000
;TYPE:Outer wall
G1 F3000
G1 X30.743 Y215.906 E.71716
G1 X21.223 Y215.906 E.33907
M73 P24 R2
M73 P24 R2
G1 X21.223 Y195.77 E.71716
G1 X30.703 Y195.77 E.33764
G1 E-.35 F1800
;WIPE_START
G1 F3000
G1 X30.705 Y196.77 E-.15
;WIPE_END
G1 X29.738 Y197.672 F21000
G1 E.5 F1800
;TYPE:Bottom surface
;WIDTH:0.486536
G1 F6300
G1 X28.84 Y196.775 E.04588
G1 X28.213 Y196.775 F21000
G1 F6300
G1 X29.738 Y198.3 E.07795
G1 X29.738 Y198.927 F21000
G1 F6300
G1 X27.585 Y196.775 E.11002
G1 X26.958 Y196.775 F21000
G1 F6300
G1 X29.738 Y199.555 E.1421
G1 X29.738 Y200.182 F21000
M73 P25 R2
M73 P25 R2
G1 F6300
G1 X26.331 Y196.775 E.17417
G1 X25.703 Y196.775 F21000
G1 F6300
G1 X29.738 Y200.809 E.20624
G1 X29.738 Y201.437 F21000
G1 F6300
G1 X25.076 Y196.775 E.23831
G1 X24.449 Y196.775 F21000
G1 F6300
G1 X29.738 Y202.064 E.27039
G1 X29.738 Y202.691 F21000
G1 F6300
G1 X23.821 Y196.775 E.30246
G1 X23.194 Y196.775 F21000
G1 F6300
G1 X29.738 Y203.319 E.33453
G1 X29.738 Y203.946 F21000
G1 F6300
G1 X22.567 Y196.775 E.36661
G1 X22.228 Y197.064 F21000
G1 F6300
G1 X29.738 Y204.574 E.3839
G1 X29.738 Y205.201 F21000
M73 P26 R2
M73 P26 R2
G1 F6300
G1 X22.228 Y197.692 E.3839
G1 X22.228 Y198.319 F21000
G1 F6300
G1 X29.738 Y205.828 E.3839
G1 X29.738 Y206.456 F21000
G1 F6300
G1 X22.228 Y198.946 E.3839
G1 X22.228 Y199.574 F21000
G1 F6300
G1 X29.738 Y207.083 E.3839
G1 X29.738 Y207.71 F21000
G1 F6300
G1 X22.228 Y200.201 E.3839
G1 X22.228 Y200.828 F21000
G1 F6300
G1 X29.738 Y208.338 E.3839
G1 X29.738 Y208.965 F21000
G1 F6300
G1 X22.228 Y201.456 E.3839
G1 X22.228 Y202.083 F21000
M73 P27 R2
M73 P27 R2
G1 F6300
G1 X29.738 Y209.593 E.3839
G1 X29.738 Y210.22 F21000
G1 F6300
G1 X22.228 Y202.71 E.3839
G1 X22.228 Y203.338 F21000
G1 F6300
G1 X29.738 Y210.847 E.3839
G1 X29.738 Y211.475 F21000
G1 F6300
G1 X22.228 Y203.965 E.3839
G1 X22.228 Y204.593 F21000
G1 F6300
G1 X29.738 Y212.102 E.3839
G1 X29.738 Y212.729 F21000
G1 F6300
G1 X22.228 Y205.22 E.3839
G1 X22.228 Y205.847 F21000
G1 F6300
G1 X29.738 Y213.357 E.3839
G1 X29.738 Y213.984 F21000
M73 P28 R2
M73 P28 R2
G1 F6300
G1 X22.228 Y206.475 E.3839
G1 X22.228 Y207.102 F21000
G1 F6300
G1 X29.738 Y214.611 E.3839
G1 X29.399 Y214.9 F21000
G1 F6300
G1 X22.228 Y207.729 E.3666
G1 X22.228 Y208.357 F21000
G1 F6300
G1 X28.772 Y214.9 E.33453
G1 X28.144 Y214.9 F21000
G1 F6300
G1 X22.228 Y208.984 E.30245
G1 X22.228 Y209.611 F21000
G1 F6300
G1 X27.517 Y214.9 E.27038
G1 X26.89 Y214.9 F21000
G1 F6300
G1 X22.228 Y210.239 E.23831
G1 X22.228 Y210.866 F21000
G1 F6300
G1 X26.262 Y214.9 E.20624
G1 X25.635 Y214.9 F21000
M73 P29 R2
M73 P29 R2
G1 F6300
G1 X22.228 Y211.494 E.17416
G1 X22.228 Y212.121 F21000
G1 F6300
G1 X25.008 Y214.9 E.14209
G1 X24.38 Y214.9 F21000
G1 F6300
G1 X22.228 Y212.748 E.11002
G1 X22.228 Y213.376 F21000
G1 F6300
G1 X23.753 Y214.9 E.07794
G1 X23.126 Y214.9 F21000
G1 F6300
G1 X22.228 Y214.003 E.04587
G1 E-.35 F1800
;WIPE_START
G1 F6300
G1 X22.935 Y214.71 E-.15
;WIPE_END
G1 X107.519 Y106.469 F21000
G1 E.5 F1800
;TYPE:Inner wall
;WIDTH:0.479999
G1 F3000
G1 X120.521 Y119.471 E.6549
G1 X115.025 Y124.967 E.2768
M73 P30 R2
M73 P30 R2
G1 X102.023 Y111.965 E.6549
G1 X107.49 Y106.498 E.27537
G1 X107.519 Y105.851 F21000
G1 F3000
G1 X121.139 Y119.471 E.68603
G1 X115.025 Y125.585 E.30793
G1 X101.405 Y111.965 E.68603
G1 X107.49 Y105.88 E.30651
M73 P31 R2
M73 P31 R2
G1 X107.519 Y105.233 F21000
;TYPE:Outer wall
G1 F3000
G1 X121.757 Y119.471 E.71716
G1 X115.025 Y126.203 E.33907
G1 X100.787 Y111.965 E.71716
G1 X107.49 Y105.261 E.33764
G1 E-.35 F1800
;WIPE_START
G1 F3000
G1 X108.199 Y105.967 E-.15
;WIPE_END
G1 X120.193 Y119.613 F21000
G1 E.5 F1800
M73 P32 R2
;TYPE:Bottom surface
;WIDTH:0.487223
M73 P32 R2
G1 F6300
G1 X107.377 Y106.796 E.65623
G1 X107.063 Y107.111 F21000
G1 F6300
G1 X119.879 Y119.927 E.65623
G1 X119.565 Y120.241 F21000
G1 F6300
G1 X106.749 Y107.425 E.65623
G1 X106.434 Y107.739 F21000
G1 F6300
G1 X119.251 Y120.555 E.65623
G1 X118.937 Y120.87 F21000
G1 F6300
G1 X106.12 Y108.053 E.65623
G1 X105.806 Y108.367 F21000
G1 F6300
G1 X118.623 Y121.184 E.65623
G1 X118.308 Y121.498 F21000
M73 P33 R2
M73 P33 R2
G1 F6300
G1 X105.492 Y108.681 E.65623
G1 X105.178 Y108.996 F21000
G1 F6300
G1 X117.994 Y121.812 E.65623
G1 X117.68 Y122.126 F21000
G1 F6300
G1 X104.864 Y109.31 E.65623
G1 X104.549 Y109.624 F21000
G1 F6300
G1 X117.366 Y122.44 E.65623
G1 X117.052 Y122.755 F21000
G1 F6300
G1 X104.235 Y109.938 E.65623
G1 X103.921 Y110.252 F21000
M73 P34 R2
M73 P34 R2
G1 F6300
G1 X116.738 Y123.069 E.65623
G1 X116.423 Y123.383 F21000
G1 F6300
G1 X103.607 Y110.566 E.65623
G1 X103.293 Y110.881 F21000
G1 F6300
G1 X116.109 Y123.697 E.65623
G1 X115.795 Y124.011 F21000
G1 F6300
G1 X102.979 Y111.195 E.65623
G1 X102.664 Y111.509 F21000
G1 F6300
G1 X115.481 Y124.326 E.65623
G1 X115.167 Y124.64 F21000
G1 F6300
G1 X102.35 Y111.823 E.65623
G1 E-.35 F1800
M73 P35 R2
;WIPE_START
M73 P35 R2
G1 F6300
G1 X103.057 Y112.53 E-.15
;WIPE_END
G1 X34.768 Y21.543 F21000
G1 E.5 F1800
;TYPE:Inner wall
;WIDTH:0.479999
G1 F3000
G1 X34.768 Y29.315 E.2768
G1 X16.381 Y29.315 E.6549
G1 X16.381 Y21.543 E.2768
G1 X34.728 Y21.543 E.65347
M73 P36 R2
M73 P36 R2
G1 X35.205 Y21.106 F21000
G1 F3000
G1 X35.205 Y29.752 E.30793
G1 X15.944 Y29.752 E.68603
G1 X15.944 Y21.106 E.30793
G1 X35.165 Y21.106 E.68461
G1 X35.642 Y20.669 F21000
;TYPE:Outer wall
G1 F3000
G1 X35.642 Y30.189 E.33907
G1 X15.506 Y30.189 E.71716
G1 X15.506 Y20.669 E.33907
M73 P37 R2
M73 P37 R2
G1 X35.602 Y20.669 E.71574
G1 E-.35 F1800
;WIPE_START
G1 F3000
G1 X35.606 Y21.669 E-.15
;WIPE_END
G1 X33.74 Y21.674 F21000
G1 E.5 F1800
;TYPE:Bottom surface
;WIDTH:0.486536
G1 F6300
G1 X34.637 Y22.572 E.04588
G1 X34.637 Y23.199 F21000
G1 F6300
G1 X33.112 Y21.674 E.07795
G1 X32.485 Y21.674 F21000
G1 F6300
G1 X34.637 Y23.827 E.11002
G1 X34.637 Y24.454 F21000
G1 F6300
G1 X31.857 Y21.674 E.1421
G1 X31.23 Y21.674 F21000
G1 F6300
G1 X34.637 Y25.081 E.17417
G1 X34.637 Y25.709 F21000
M73 P38 R2
M73 P38 R2
G1 F6300
G1 X30.603 Y21.674 E.20624
G1 X29.975 Y21.674 F21000
G1 F6300
G1 X34.637 Y26.336 E.23831
G1 X34.637 Y26.963 F21000
G1 F6300
G1 X29.348 Y21.674 E.27039
G1 X28.721 Y21.674 F21000
G1 F6300
G1 X34.637 Y27.591 E.30246
G1 X34.637 Y28.218 F21000
G1 F6300
G1 X28.093 Y21.674 E.33453
G1 X27.466 Y21.674 F21000
G1 F6300
G1 X34.637 Y28.846 E.36661
G1 X34.348 Y29.184 F21000
G1 F6300
G1 X26.838 Y21.674 E.3839
G1 X26.211 Y21.674 F21000
G1 F6300
G1 X33.721 Y29.184 E.3839
G1 X33.093 Y29.184 F21000
M73 P39 R2
M73 P39 R2
G1 F6300
G1 X25.584 Y21.674 E.3839
G1 X24.956 Y21.674 F21000
G1 F6300
G1 X32.466 Y29.184 E.3839
G1 X31.838 Y29.184 F21000
G1 F6300
G1 X24.329 Y21.674 E.3839
G1 X23.702 Y21.674 F21000
G1 F6300
G1 X31.211 Y29.184 E.3839
G1 X30.584 Y29.184 F21000
G1 F6300
G1 X23.074 Y21.674 E.3839
G1 X22.447 Y21.674 F21000
G1 F6300
G1 X29.956 Y29.184 E.3839
G1 X29.329 Y29.184 F21000
G1 F6300
G1 X21.82 Y21.674 E.3839
G1 X21.192 Y21.674 F21000
M73 P40 R2
M73 P40 R2
G1 F6300
G1 X28.702 Y29.184 E.3839
G1 X28.074 Y29.184 F21000
G1 F6300
G1 X20.565 Y21.674 E.3839
G1 X19.937 Y21.674 F21000
G1 F6300
G1 X27.447 Y29.184 E.3839
G1 X26.819 Y29.184 F21000
G1 F6300
G1 X19.31 Y21.674 E.3839
G1 X18.683 Y21.674 F21000
G1 F6300
G1 X26.192 Y29.184 E.3839
G1 X25.565 Y29.184 F21000
G1 F6300
G1 X18.055 Y21.674 E.3839
G1 X17.428 Y21.674 F21000
G1 F6300
G1 X24.937 Y29.184 E.3839
G1 X24.31 Y29.184 F21000
M73 P41 R2
M73 P41 R2
G1 F6300
G1 X16.801 Y21.674 E.3839
G1 X16.512 Y22.013 F21000
G1 F6300
G1 X23.683 Y29.184 E.3666
G1 X23.055 Y29.184 F21000
G1 F6300
G1 X16.512 Y22.64 E.33452
G1 X16.512 Y23.268 F21000
G1 F6300
G1 X22.428 Y29.184 E.30245
G1 X21.801 Y29.184 F21000
G1 F6300
G1 X16.512 Y23.895 E.27038
G1 X16.512 Y24.522 F21000
G1 F6300
G1 X21.173 Y29.184 E.23831
G1 X20.546 Y29.184 F21000
G1 F6300
G1 X16.512 Y25.15 E.20623
G1 X16.512 Y25.777 F21000
G1 F6300
G1 X19.918 Y29.184 E.17416
G1 X19.291 Y29.184 F21000
G1 F6300
M73 P42 R2
M73 P42 R2
G1 X16.512 Y26.404 E.14209
G1 X16.512 Y27.032 F21000
G1 F6300
G1 X18.664 Y29.184 E.11002
G1 X18.036 Y29.184 F21000
G1 F6300
G1 X16.512 Y27.659 E.07794
G1 X16.512 Y28.287 F21000
G1 F6300
G1 X17.409 Y29.184 E.04587
G1 E-.35 F1800
;WIPE_START
G1 F6300
G1 X16.702 Y28.477 E-.15
;WIPE_END
G1 X192.097 Y34.214 F21000
G1 E.5 F1800
;TYPE:Inner wall
;WIDTH:0.479999
G1 F3000
G1 X192.097 Y15.827 E.6549
G1 X199.869 Y15.827 E.2768
M73 P43 R2
M73 P43 R2
G1 X199.869 Y34.214 E.6549
G1 X192.137 Y34.214 E.27537
G1 X191.66 Y34.651 F21000
G1 F3000
G1 X191.66 Y15.39 E.68603
G1 X200.306 Y15.39 E.30793
G1 X200.306 Y34.651 E.68603
G1 X191.7 Y34.651 E.30651
G1 X191.223 Y35.088 F21000
M73 P44 R2
;TYPE:Outer wall
M73 P44 R2
G1 F3000
G1 X191.223 Y14.953 E.71716
G1 X200.743 Y14.953 E.33907
G1 X200.743 Y35.088 E.71716
G1 X191.263 Y35.088 E.33764
G1 E-.35 F1800
;WIPE_START
G1 F3000
G1 X191.261 Y34.088 E-.15
;WIPE_END
G1 X199.738 Y16.855 F21000
G1 E.5 F1800
;TYPE:Bottom surface
;WIDTH:0.486536
G1 F6300
G1 X198.84 Y15.958 E.04588
G1 X198.213 Y15.958 F21000
M73 P45 R2
M73 P45 R2
G1 F6300
G1 X199.738 Y17.483 E.07795
G1 X199.738 Y18.11 F21000
G1 F6300
G1 X197.586 Y15.958 E.11002
G1 X196.958 Y15.958 F21000
G1 F6300
G1 X199.738 Y18.737 E.1421
G1 X199.738 Y19.365 F21000
G1 F6300
G1 X196.331 Y15.958 E.17417
G1 X195.703 Y15.958 F21000
G1 F6300
G1 X199.738 Y19.992 E.20624
G1 X199.738 Y20.619 F21000
G1 F6300
G1 X195.076 Y15.958 E.23831
G1 X194.449 Y15.958 F21000
G1 F6300
G1 X199.738 Y21.247 E.27039
